X:1
T:Ave Regina - Aichinger
T:#
%%score { 1 | 2 } 3
L:1/8
Q:1/4=120
M:none
K:F
V:1 treble nm="Soprano I" snm="S"
V:2 treble 
V:3 treble-8 nm="Tenor" snm="T"
V:1
"^Ave Regina""^Gregor Aichinger\n (1564-1628)" F2 E2 D2 E2 C2 D2 F2 E2 F4 || %1
w: A\- * * * * * * * ve|
[Q:1/4=200] z16 z16 z16 F8 G8 A8 G8 | x16 | x16 | x16 | x16 |[M:4/2][Q:1/4=200][Q:1/4=200] A8 (B8 | %7
w: Re- gi- na coe\-|||||* lo\-|
 A8 G8) | F4 (A8 G2 F2 | G4) A4 B4 c4 | A4 (F8 E2 D2 | E4) C4 D4 E4 | F8 z8 | z16 | %14
w: |rum: A\- * *|* ve Do- mi-|na, A\- * *|* ve Do- mi-|na||
 (C6 D2 E2 F2 G2 E2 | F4) E4 D8 | C4 (C8 D4- | D4 E8 F4- | F4) G4 A4 F4 | G8 E8 | (F12 E4 | %21
w: An\- * * * * *|* ge- lo-|rum: Sal\- *||* ve ra- dix|san- cta,|sal\- *|
 F4 G6 F2 F4- | F4) E4 F4 D4 | E8 F8 | G8 E4 F4- | F4 D4 G8 | F8 (E4 D2 C2) | D8 C8 || %28
w: |* ve ra- dix|san- cta,|ex qua mun\-|* do lux|est or\- * *|* ta.|
[M:3/1][Q:1/4=400] c16 c8 | d16 c8 | B16 A8 | A16 G8 | F16 E8 | D16 F8 ||[Q:1/4=200] E8 E8 | %35
w: Gau- de|glo- ri-|o- sa,|su- per|o- mnes|spe- ci-|o- sa:|
 (F8 G8) |[M:4/2] (A8 B8 | A8 G8) | A4 c4 B8 | A8 (G8- | G4 F4 B8 | A8 G6 F2 | E8) D4 F4- | %43
w: Va\- *|||le val- de|de- co\-|||* ra, et|
 F4 E8 D4- | D4 C4 D4 (G4- | G2 ^FE !courtesy!^F4) G4 E4 | F4 D4 E8 | F4 d8 B4 | c4 A4 B8 | %49
w: * pro no\-|* bis, et pro|* * * * no- bis|sem- per Chri-|stum, et pro|no- bis sem-|
 A4 (G6 F2 F4-) | (F4 E4) F4 (A4- | A4 G8) (F4- | F4 E4) F4[Q:1/4=198] D4 | %53
w: per Chri\- * *|* * stum ex\-|* * o\-|* * ra, ex-|
[Q:1/4=195] (A2[Q:1/4=193] G2[Q:1/4=192] A2[Q:1/4=190] B2[Q:1/4=187] c4[Q:1/4=184] A4 | %54
w: o\- * * * * *|
[Q:1/4=181] d4[Q:1/4=176] B8[Q:1/4=172] A2[Q:1/4=170] G2) |[Q:1/4=170] A16 |] %56
w: |ra.|
V:2
 x16 x4 || C12 D4- x64 | D4 E8 C4 | (D4 E4 F6 E2 | D2 C2 F8 E4) | F4 A4 B4 (c2 B2) | %6
w: |Re- gi\-|* na coe-|li\- * * *||rum, Re- gi- na *|
[M:4/2] (A2 G2 F2 E2 D4) (G4- | G2 F2 F6 ED E4) | F8 C8- | C8 z8 | z4 (A8 G2 F2 | G4) A4 B4 c4 | %12
w: * * * * * coe\-||lo- rum:||A\- * *|* ve Do- mi-|
 A4 (F6 D2 E2 F2 | G4) F4 E8 | F4 (A2 B2 c2 A2 B2 c2 | d4) c4 =B8 | c8 (A8 | B8 c8 | d8 c8 | %19
w: na An\- * * *|* ge- lo-|rum, An\- * * * * *|* ge- lo-|rum: Sal\-|||
 B8) c8- | c8 z8 | z8 (c8 | B8) A8 | G8 A4 d4- | d4 B4 c8 | A4 B8 G4 | (A8 G4 c4-) | %27
w: * ve||ra\-|* dix|san- cta, ex|* qua mun-|do lux est|or\- * *|
 (c2 =BA !courtesy!=B4) c8 ||[M:3/1] A16 G8 | F16 E8 | D16 C8 | c16 c8 | d16 c8 | B16 A8 || %34
w: * * * * ta.|Gau- de|glo- ri-|o- sa,|su- per|o- mnes|spe- ci-|
 G4 G4 (C8 | D8 E8) |[M:4/2] F4 D8 G4 | F4 E4 D8 | C8 z4 G4- | G4 F8 E4 | D4 C4 (D4 E4 | %41
w: o- sa: Va\-||* le val-|de de- co-|ra, va\-|* le val-|de de- co\- *|
 F4 E2 D2 E2 D2 D4- | D4 ^C4) D8 | z16 | A8 (G8 | A8) (B8 | A8 G8) | F8 G8 | F8 (D8 | C8) F8 | %50
w: |* * ra,||et pro|* no\-||bis sem-|per Chri\-|* stum|
 (G8 A8) | (B8 A8 | G8) F8- | F16 | F16 | F16 |] %56
w: ex\- *|o\- *|* ra.||||
V:3
 x16 x4 || z8 F8 x64 | G8 A8 | (G8 A4) (B4- | B4 A4 G8) | F4 f8 e4 | %6
w: |Re-|gi- na|coe\- * lo\-||rum, Re- gi-|
[M:4/2][K:treble-8] (f2 e2 d2 c2 B4) G4 | (A6 B2 c8) | F4 (f8 e2 d2 | e4) c4 d4 e4 | (f6 ed c8- | %11
w: na * * * * coe-|lo\- * *|rum: A\- * *|* ve Do- mi-|na * * *|
 c8) z8 | (F6 G2 A2 B2 c2 A2 | B4) A4 G8 | F8 z8 | z16 | z8 (F8 | G8 A8 | B8 A8 | G8) A8- | %20
w: |An\- * * * * *|* ge- lo-|rum:||Sal\-|||* ve|
 A8 (c8 | B8) A8 | G8 F8 | z4 c4 A4 B4- | B4 G4 A8 | F4 G8 E4 | (F2 G2 A2 B2 c4) A4 | G8 c8 || %28
w: * ra\-|* dix|san- cta,|ex qua mun\-|* do, ex|qua mun- do|lux * * * * est|or- ta.|
[M:3/1] f16 e8 | d16 A8 | B16 F8 | f16 e8 | d16 A8 | B16 F8 || c12 c4 | z16 | %36
w: Gau- de|glo- ri-|o- sa,|su- per|o- mnes|spe- ci-|o- sa:||
[M:4/2][K:treble-8] (F8 G8 | A8 B8 | A8 G8) | A8 c8 | B4 A4 G8 | (F8 G8 | A8) z8 | A8 G8 | A8 (B8 | %45
w: Va\- *|||le val-|de de- co-|ra, *||et pro|* no\-|
 A8 G8) | F8 z8 | z4 B8 G4 | A4 F4 G8 | A4 c4 B4 A4 | G8 F4 f4 | d4 _e4 c4 d4 | B4 c4 A4 B4 | %53
w: |bis,|et pro|no- bis sem-|per Chri- stum ex-|o- ra, et|pro no- bis sem-|per Chri- stum ex-|
 (F6 G2 A8 | B8) F8- | F16 |] %56
w: o\- * *|* ra.||

